svg/color/ltc.svg

<svg width="64" height="65" viewBox="0 0 64 65" fill="none" xmlns="http://www.w3.org/2000/svg">
<g clip-path="url(#clip0_11313_5252)">
<rect y="0.303711" width="64" height="64" rx="32" fill="white"/>
<path d="M32 0.303711C25.671 0.303711 19.4841 2.18048 14.2218 5.69668C8.95939 9.21289 4.85787 14.2106 2.43587 20.0578C0.013865 25.9051 -0.619842 32.3392 0.614885 38.5466C1.84961 44.754 4.89732 50.4558 9.3726 54.9311C13.8479 59.4064 19.5497 62.4541 25.7571 63.6888C31.9645 64.9236 38.3986 64.2899 44.2459 61.8679C50.0931 59.4458 55.0908 55.3443 58.607 50.082C62.1232 44.8196 64 38.6327 64 32.3037C64.0122 28.1136 63.199 23.9621 61.6068 20.0863C60.0147 16.2105 57.6747 12.6862 54.7204 9.71477C51.7662 6.74329 48.2557 4.38279 44.3892 2.76803C40.5227 1.15328 36.3761 0.315903 32.186 0.303711H32ZM32.5424 33.3885L29.2107 44.6233H47.0315C47.1495 44.6192 47.2672 44.6383 47.3779 44.6797C47.4885 44.7211 47.5899 44.7839 47.6763 44.8645C47.7626 44.9451 47.8322 45.0419 47.8811 45.1494C47.93 45.257 47.9573 45.3731 47.9613 45.4911V45.7855L46.4116 51.1318C46.3433 51.3846 46.191 51.6067 45.9799 51.7616C45.7687 51.9165 45.5111 51.9949 45.2494 51.9841H17.9758L22.5472 36.4102L17.4334 37.9599L18.5957 34.3957L23.7095 32.8461L30.1404 10.9962C30.2112 10.7448 30.3641 10.5243 30.5747 10.3699C30.7854 10.2154 31.0416 10.1359 31.3027 10.1439H38.1986C38.3166 10.1398 38.4343 10.1589 38.5449 10.2003C38.6556 10.2417 38.757 10.3045 38.8433 10.3851C38.9297 10.4657 38.9993 10.5625 39.0482 10.67C39.0971 10.7775 39.1243 10.8936 39.1283 11.0117V11.3061L33.7046 29.7468L38.8184 28.1972L37.7337 31.9163L32.5424 33.3885Z" fill="#345D9D"/>
</g>
<rect x="0.5" y="0.803711" width="63" height="63" rx="31.5" stroke="#070B14" stroke-opacity="0.15"/>
<defs>
<clipPath id="clip0_11313_5252">
<rect y="0.303711" width="64" height="64" rx="32" fill="white"/>
</clipPath>
</defs>
</svg>

<svg xmlns="http://www.w3.org/2000/svg" width="64" height="65" fill="none" viewBox="0 0 64 65"><g clip-path="url(#ltc_svg-a)"><rect width="64" height="64" y=".304" fill="#fff" rx="32"/><path fill="#345D9D" d="M32 .304a32 32 0 1 0 32 32 31.907 31.907 0 0 0-31.814-32zm.542 33.085-3.331 11.234h17.82a.9.9 0 0 1 .93.868v.294l-1.55 5.347a1.155 1.155 0 0 1-1.162.852H17.976l4.571-15.574-5.114 1.55 1.163-3.564 5.113-1.55 6.431-21.85a1.17 1.17 0 0 1 1.163-.852h6.896a.9.9 0 0 1 .93.868v.294l-5.424 18.44 5.113-1.549-1.084 3.72z"/></g><rect width="63" height="63" x=".5" y=".804" stroke="#070B14" stroke-opacity=".15" rx="31.5"/><defs><clipPath id="ltc_svg-a"><rect width="64" height="64" y=".304" fill="#fff" rx="32"/></clipPath></defs></svg>
